!!!OTL: Graf und Nonne (Die Nonne) Zu Frankfurt auf der Bruecke
!!!ARE: Europa, Mitteleuropa, Deutschland (BRD), Nordrhein - Westfalen, Meurs
!!!YOR: 8, S. 290
!!    1839 aufgezeichnet
!!!SCT: Q1155G.
!!!YEM: Copyright 1995, estate of Helmut Schaffrath.
**kern
*ICvox
*Ivox
*M2/4
*k[f#]
*G:
{8d
=1
8g
8d
8B
8d
=2
8.b
16a
8g}
{8b
=3
8.a
16g
8f#
16g
16b
=4
4a
8r}
{16f#
16g
=5
8a
8a
8a
8cc
=6
8.b
16a
4g}
=7
{4a
8a
8cc
=8
16b
16a
16b
16a
8g}
{8g
=9
8e
8g
16f#
16f#
8a
=10
4g
8r}
==
!!!AGN: Liebes - Lied
!! Melodievergleich zu Q0155I., anderes Lied. Vierte Zeile = Refrain
!!    auf sinnfreie Silben.
!!!ONB: ESAC (Essen Associative Code) Database: BALLADE
!!!AMT: simple duple
!!!AIN: vox
!!!EED: Helmut Schaffrath
!!!EEV: 1.0
*-
